X:1
T:He the Pearly Gates Will Open
T:He the Pearly Gates Will Open
T:Alfred O. Duhlin, arr Elsie Ahlwen, 1930
T:Frederick Blom, 1917; tr. by Nathaniel Carlson
T:Courtesy of the Cyber Hymnal™
C:Alfred O. Duhlin, arr Elsie Ahlwen, 1930
Z:Courtesy of the Cyber Hymnal™
%%score 1 2
L:1/8
Q:1/4=110
M:4/4
K:G
V:1 treble 
V:2 bass 
V:1
 [DB]3 [DB] [DA]>[DG] [DB]>[CA] | [B,G]4 [B,G]4 | [Ec]3 [Ec] [DB]>[CA] [B,G]>[DB] | [DA]8 | %4
w: 1.~Love di- vine, so great and|won- drous,|Deep and might- y, pure, sub-|lime!|
w: 2.~Like a dove when hunt- ed,|fright- ened,|As a wound- ed fawn was|I;|
w: 3.~Love di- vine, so great and|won- drous,|All my sins He then for-|gave!|
w: 4.~In life’s ev- en- tide, at|twi- light,|At His door I’ll knock and|wait;|
 [DB]3 [CA] [B,G]>[B,G] [B,D]>[B,^D] | [CE]4 [EG]2 [CF]>[CE] | [B,D]2 [DB]2 [DB]2 [CA]2 | [B,G]8 || %8
w: Com- ing from the heart of|Je- sus, Just the|same through tests of|time.|
w: Brok- en- heart- ed, yet He|healed me, He will|heed the sin- ner’s|cry.|
w: I will sing His praise for-|ev- er, For His|blood, His power to|save.|
w: By the pre- cious love of|Je- sus I shall|en- ter Heav- en’s|gate.|
"^Refrain" [CA]3 [CA] [DB]>[CA] [CG]>[CA] | [DB]4 [DG]4 | [Ec]3 [Ec] [DB]>[DA] [DG]>[DB] | [CA]8 | %12
w: ||||
w: ||||
w: ||||
w: ||||
 [DB]3 [CA] [B,G]>[B,G] [B,D]>[B,^D] | [CE]4 !fermata![EG]2 [CF][^A,E] | [B,D]2 [DB]2 [Dc]2 [CF]2 | %15
w: |||
w: |||
w: |||
w: |||
 [B,G]8 |] %16
w: |
w: |
w: |
w: |
V:2
 [G,,G,]3 [G,,G,] [A,,F,]>[B,,G,] [D,G,]>[D,F,] | [G,,G,]4 [G,,G,]4 | %2
w: ~ ~ ~ ~ ~ ~|~ ~|
 [C,G,]3 [C,G,] [G,,G,]>[G,,G,] [G,,G,]>[G,,G,] | [D,F,]8 | %4
w: ~ ~ ~ ~ ~ ~|~|
 [G,,G,]3 [G,,G,] [G,,G,]>[G,,G,] [G,,G,]>[G,,G,] | [C,G,]4 [C,C]2 [C,A,]>[C,G,] | %6
w: ~ ~ ~ ~ ~ ~|~ ~ ~ ~|
 [G,,G,]2 [G,,G,]2 [D,F,]2 [D,F,]2 | [G,,D,G,]8 || [D,F,]3 [D,F,] [D,G,]>[D,F,] [D,E,]>[D,F,] | %9
w: ~ ~ ~ ~|~|He the pear- ly gates will|
 [G,,G,]4 [B,,G,]4 | [C,G,]3 [C,G,] [G,,G,]>[A,,F,] [B,,G,]>[D,G,] | [D,F,]8 | %12
w: o- pen,|So that I may en- ter|in;|
 [G,,G,]3 [G,,G,] [G,,G,]>[G,,G,] [G,,G,]>[G,,G,] | [C,G,]4 !fermata![C,C]2 [C,A,][^C,G,] | %14
w: For He pur- chased my re-|demp- tion And for-|
 [D,G,]2 [G,,G,]2 [D,F,]2 [D,A,]2 | [G,,D,G,]8 |] %16
w: gave me all my|sin.|

